img/svg/icon-font/file.svg

<svg width="22" height="22" viewBox="0 0 22 22" fill="none" xmlns="http://www.w3.org/2000/svg">
<path d="M18.8604 15.125C19.3351 15.125 19.7198 14.7403 19.7198 14.2656V3.4375C19.7198 1.54206 18.1777 0 16.2823 0H5.7168C3.82136 0 2.2793 1.54206 2.2793 3.4375V18.5625C2.2793 20.4579 3.82136 22 5.7168 22H16.2823C18.1778 22 19.7198 20.4579 19.7198 18.5625C19.7198 18.0879 19.3351 17.7031 18.8605 17.7031C18.3858 17.7031 18.0011 18.0879 18.0011 18.5625C18.0011 19.5102 17.2301 20.2812 16.2823 20.2812H5.7168C4.76908 20.2812 3.99805 19.5102 3.99805 18.5625V3.4375C3.99805 2.48978 4.76908 1.71875 5.7168 1.71875H16.2823C17.2301 1.71875 18.0011 2.48978 18.0011 3.4375V14.2656C18.001 14.7403 18.3858 15.125 18.8604 15.125Z" fill="#4C51CB"/>
<path d="M15.4239 5.15625H6.57229C6.09766 5.15625 5.71291 5.54099 5.71291 6.01562C5.71291 6.49026 6.09766 6.875 6.57229 6.875H15.4239C15.8985 6.875 16.2832 6.49026 16.2832 6.01562C16.2832 5.54099 15.8984 5.15625 15.4239 5.15625Z" fill="#4C51CB"/>
<path d="M15.4239 8.59375H6.57229C6.09766 8.59375 5.71291 8.97849 5.71291 9.45312C5.71291 9.92776 6.09766 10.3125 6.57229 10.3125H15.4239C15.8985 10.3125 16.2832 9.92776 16.2832 9.45312C16.2832 8.97849 15.8984 8.59375 15.4239 8.59375Z" fill="#4C51CB"/>
<path d="M11.9481 12.0312H6.57229C6.09766 12.0312 5.71291 12.416 5.71291 12.8906C5.71291 13.3653 6.09766 13.75 6.57229 13.75H11.9482C12.4228 13.75 12.8075 13.3653 12.8075 12.8906C12.8075 12.416 12.4227 12.0312 11.9481 12.0312Z" fill="#4C51CB"/>
</svg>

<svg width="22" height="22" fill="none" xmlns="http://www.w3.org/2000/svg"><path d="M18.86 15.125a.86.86 0 00.86-.86V3.438A3.441 3.441 0 0016.282 0H5.717a3.441 3.441 0 00-3.438 3.438v15.124A3.441 3.441 0 005.717 22h10.565a3.441 3.441 0 003.438-3.438.86.86 0 10-1.719 0 1.72 1.72 0 01-1.719 1.72H5.717a1.72 1.72 0 01-1.719-1.72V3.438A1.72 1.72 0 015.717 1.72h10.565a1.72 1.72 0 011.72 1.718v10.829a.858.858 0 00.858.859z" fill="#4C51CB"/><path d="M15.424 5.156H6.572a.86.86 0 100 1.719h8.852a.86.86 0 000-1.719zm0 3.438H6.572a.86.86 0 100 1.719h8.852a.86.86 0 000-1.72zm-3.476 3.437H6.572a.86.86 0 000 1.719h5.376a.86.86 0 100-1.719z" fill="#4C51CB"/></svg>
